images/29660.svg

<?xml version="1.0" encoding="UTF-8"?>
<svg xmlns="http://www.w3.org/2000/svg" xmlns:xlink="http://www.w3.org/1999/xlink" width="300pt" height="300pt" viewBox="0 0 300 300" version="1.1">
<defs>
<g>
<symbol overflow="visible" id="glyph0-0">
<path style="stroke:none;" d="M 0.546875 1.9375 L 0.546875 -7.75 L 6.046875 -7.75 L 6.046875 1.9375 Z M 1.171875 1.328125 L 5.4375 1.328125 L 5.4375 -7.140625 L 1.171875 -7.140625 Z M 1.171875 1.328125 "/>
</symbol>
<symbol overflow="visible" id="glyph0-1">
<path style="stroke:none;" d="M 1.078125 -8.015625 L 5.6875 -8.015625 L 5.6875 -7.109375 L 2.171875 -7.109375 L 2.171875 -4.75 L 5.34375 -4.75 L 5.34375 -3.828125 L 2.171875 -3.828125 L 2.171875 0 L 1.078125 0 Z M 1.078125 -8.015625 "/>
</symbol>
<symbol overflow="visible" id="glyph0-2">
<path style="stroke:none;" d="M 1.078125 -8.015625 L 2.546875 -8.015625 L 6.09375 -1.3125 L 6.09375 -8.015625 L 7.15625 -8.015625 L 7.15625 0 L 5.6875 0 L 2.125 -6.703125 L 2.125 0 L 1.078125 0 Z M 1.078125 -8.015625 "/>
</symbol>
<symbol overflow="visible" id="glyph0-3">
<path style="stroke:none;" d="M 4.328125 -7.28125 C 3.546875 -7.28125 2.921875 -6.984375 2.453125 -6.390625 C 1.992188 -5.804688 1.765625 -5.007812 1.765625 -4 C 1.765625 -2.988281 1.992188 -2.1875 2.453125 -1.59375 C 2.921875 -1.007812 3.546875 -0.71875 4.328125 -0.71875 C 5.117188 -0.71875 5.742188 -1.007812 6.203125 -1.59375 C 6.660156 -2.1875 6.890625 -2.988281 6.890625 -4 C 6.890625 -5.007812 6.660156 -5.804688 6.203125 -6.390625 C 5.742188 -6.984375 5.117188 -7.28125 4.328125 -7.28125 Z M 4.328125 -8.171875 C 5.453125 -8.171875 6.351562 -7.789062 7.03125 -7.03125 C 7.707031 -6.28125 8.046875 -5.269531 8.046875 -4 C 8.046875 -2.738281 7.707031 -1.726562 7.03125 -0.96875 C 6.351562 -0.21875 5.453125 0.15625 4.328125 0.15625 C 3.203125 0.15625 2.300781 -0.21875 1.625 -0.96875 C 0.957031 -1.71875 0.625 -2.726562 0.625 -4 C 0.625 -5.269531 0.957031 -6.28125 1.625 -7.03125 C 2.300781 -7.789062 3.203125 -8.171875 4.328125 -8.171875 Z M 4.328125 -8.171875 "/>
</symbol>
</g>
</defs>
<g id="surface23589">
<rect x="0" y="0" width="300" height="300" style="fill:rgb(100%,100%,100%);fill-opacity:1;stroke:none;"/>
<path style="fill:none;stroke-width:1.2;stroke-linecap:butt;stroke-linejoin:miter;stroke:rgb(20%,80%,80%);stroke-opacity:1;stroke-miterlimit:10;" d="M 35.25 214.78125 L 43.8125 203.746094 "/>
<path style="fill:none;stroke-width:1.2;stroke-linecap:butt;stroke-linejoin:miter;stroke:rgb(0%,0%,0%);stroke-opacity:1;stroke-miterlimit:10;" d="M 43.8125 203.746094 L 52.371094 192.710938 "/>
<path style=" stroke:none;fill-rule:nonzero;fill:rgb(100%,100%,100%);fill-opacity:1;" d="M 28.25 208.28125 L 35.25 208.28125 L 35.25 221.28125 L 28.25 221.28125 Z M 28.25 208.28125 "/>
<g style="fill:rgb(20%,80%,80%);fill-opacity:1;">
  <use xlink:href="#glyph0-1" x="28.25" y="218.182617"/>
</g>
<path style="fill:none;stroke-width:1.2;stroke-linecap:butt;stroke-linejoin:miter;stroke:rgb(0%,0%,0%);stroke-opacity:1;stroke-miterlimit:10;" d="M 52.371094 192.710938 L 41.820312 166.847656 "/>
<path style="fill:none;stroke-width:1.2;stroke-linecap:butt;stroke-linejoin:miter;stroke:rgb(0%,0%,0%);stroke-opacity:1;stroke-miterlimit:10;" d="M 57.402344 187.640625 L 48.960938 166.949219 "/>
<path style="fill:none;stroke-width:1.2;stroke-linecap:butt;stroke-linejoin:miter;stroke:rgb(0%,0%,0%);stroke-opacity:1;stroke-miterlimit:10;" d="M 80.046875 196.503906 L 52.371094 192.710938 "/>
<path style="fill:none;stroke-width:1.2;stroke-linecap:butt;stroke-linejoin:miter;stroke:rgb(0%,0%,0%);stroke-opacity:1;stroke-miterlimit:10;" d="M 41.820312 166.847656 L 58.941406 144.773438 "/>
<path style="fill:none;stroke-width:1.2;stroke-linecap:butt;stroke-linejoin:miter;stroke:rgb(0%,0%,0%);stroke-opacity:1;stroke-miterlimit:10;" d="M 58.941406 144.773438 L 86.617188 148.570312 "/>
<path style="fill:none;stroke-width:1.2;stroke-linecap:butt;stroke-linejoin:miter;stroke:rgb(0%,0%,0%);stroke-opacity:1;stroke-miterlimit:10;" d="M 60.816406 151.667969 L 82.957031 154.699219 "/>
<path style="fill:none;stroke-width:1.2;stroke-linecap:butt;stroke-linejoin:miter;stroke:rgb(0%,0%,0%);stroke-opacity:1;stroke-miterlimit:10;" d="M 86.617188 148.570312 L 97.167969 174.433594 "/>
<path style="fill:none;stroke-width:1.2;stroke-linecap:butt;stroke-linejoin:miter;stroke:rgb(0%,0%,0%);stroke-opacity:1;stroke-miterlimit:10;" d="M 86.617188 148.570312 L 103.738281 126.496094 "/>
<path style="fill:none;stroke-width:1.2;stroke-linecap:butt;stroke-linejoin:miter;stroke:rgb(0%,0%,0%);stroke-opacity:1;stroke-miterlimit:10;" d="M 97.167969 174.433594 L 80.046875 196.503906 "/>
<path style="fill:none;stroke-width:1.2;stroke-linecap:butt;stroke-linejoin:miter;stroke:rgb(0%,0%,0%);stroke-opacity:1;stroke-miterlimit:10;" d="M 90.265625 172.609375 L 76.566406 190.265625 "/>
<path style="fill:none;stroke-width:1.2;stroke-linecap:butt;stroke-linejoin:miter;stroke:rgb(0%,0%,0%);stroke-opacity:1;stroke-miterlimit:10;" d="M 103.738281 126.496094 L 99.84375 113.085938 "/>
<path style="fill:none;stroke-width:1.2;stroke-linecap:butt;stroke-linejoin:miter;stroke:rgb(0%,0%,100%);stroke-opacity:1;stroke-miterlimit:10;" d="M 99.84375 113.085938 L 95.949219 99.671875 "/>
<path style="fill:none;stroke-width:1.2;stroke-linecap:butt;stroke-linejoin:miter;stroke:rgb(0%,0%,0%);stroke-opacity:1;stroke-miterlimit:10;" d="M 131.660156 127.378906 L 103.738281 126.496094 "/>
<path style="fill:none;stroke-width:1.2;stroke-linecap:butt;stroke-linejoin:miter;stroke:rgb(0%,0%,0%);stroke-opacity:1;stroke-miterlimit:10;" d="M 129.074219 120.71875 L 106.738281 120.015625 "/>
<path style="fill:none;stroke-width:1.2;stroke-linecap:butt;stroke-linejoin:miter;stroke:rgb(0%,0%,100%);stroke-opacity:1;stroke-miterlimit:10;" d="M 95.949219 99.671875 L 107.5 91.824219 "/>
<path style="fill:none;stroke-width:1.2;stroke-linecap:butt;stroke-linejoin:miter;stroke:rgb(0%,0%,0%);stroke-opacity:1;stroke-miterlimit:10;" d="M 107.5 91.824219 L 119.050781 83.972656 "/>
<path style="fill:none;stroke-width:1.2;stroke-linecap:butt;stroke-linejoin:miter;stroke:rgb(0%,0%,100%);stroke-opacity:1;stroke-miterlimit:10;" d="M 101.953125 103.539062 L 111.195312 97.261719 "/>
<path style="fill:none;stroke-width:1.2;stroke-linecap:butt;stroke-linejoin:miter;stroke:rgb(0%,0%,0%);stroke-opacity:1;stroke-miterlimit:10;" d="M 111.195312 97.261719 L 120.4375 90.980469 "/>
<path style=" stroke:none;fill-rule:nonzero;fill:rgb(100%,100%,100%);fill-opacity:1;" d="M 91.949219 93.171875 L 99.949219 93.171875 L 99.949219 106.171875 L 91.949219 106.171875 Z M 91.949219 93.171875 "/>
<g style="fill:rgb(0%,0%,100%);fill-opacity:1;">
  <use xlink:href="#glyph0-2" x="91.949219" y="103.073242"/>
</g>
<path style="fill:none;stroke-width:1.2;stroke-linecap:butt;stroke-linejoin:miter;stroke:rgb(0%,0%,0%);stroke-opacity:1;stroke-miterlimit:10;" d="M 119.050781 83.972656 L 130.085938 92.535156 "/>
<path style="fill:none;stroke-width:1.2;stroke-linecap:butt;stroke-linejoin:miter;stroke:rgb(100%,0%,0%);stroke-opacity:1;stroke-miterlimit:10;" d="M 130.085938 92.535156 L 141.121094 101.097656 "/>
<path style="fill:none;stroke-width:1.2;stroke-linecap:butt;stroke-linejoin:miter;stroke:rgb(100%,0%,0%);stroke-opacity:1;stroke-miterlimit:10;" d="M 141.121094 101.097656 L 136.390625 114.238281 "/>
<path style="fill:none;stroke-width:1.2;stroke-linecap:butt;stroke-linejoin:miter;stroke:rgb(0%,0%,0%);stroke-opacity:1;stroke-miterlimit:10;" d="M 136.390625 114.238281 L 131.660156 127.378906 "/>
<path style=" stroke:none;fill-rule:nonzero;fill:rgb(100%,100%,100%);fill-opacity:1;" d="M 137.121094 94.597656 L 146.121094 94.597656 L 146.121094 107.597656 L 137.121094 107.597656 Z M 137.121094 94.597656 "/>
<g style="fill:rgb(100%,0%,0%);fill-opacity:1;">
  <use xlink:href="#glyph0-3" x="137.121094" y="104.499023"/>
</g>
<path style="fill:none;stroke-width:1.2;stroke-linecap:butt;stroke-linejoin:miter;stroke:rgb(0%,0%,0%);stroke-opacity:1;stroke-miterlimit:10;" d="M 131.660156 127.378906 L 147.359375 150.480469 "/>
<path style="fill:none;stroke-width:1.2;stroke-linecap:butt;stroke-linejoin:miter;stroke:rgb(0%,0%,0%);stroke-opacity:1;stroke-miterlimit:10;" d="M 147.359375 150.480469 L 135.199219 175.628906 "/>
<path style="fill:none;stroke-width:1.2;stroke-linecap:butt;stroke-linejoin:miter;stroke:rgb(0%,0%,0%);stroke-opacity:1;stroke-miterlimit:10;" d="M 147.359375 150.480469 L 175.214844 148.4375 "/>
<path style="fill:none;stroke-width:1.2;stroke-linecap:butt;stroke-linejoin:miter;stroke:rgb(0%,0%,0%);stroke-opacity:1;stroke-miterlimit:10;" d="M 150.625 156.832031 L 172.910156 155.199219 "/>
<path style="fill:none;stroke-width:1.2;stroke-linecap:butt;stroke-linejoin:miter;stroke:rgb(0%,0%,0%);stroke-opacity:1;stroke-miterlimit:10;" d="M 135.199219 175.628906 L 150.898438 198.734375 "/>
<path style="fill:none;stroke-width:1.2;stroke-linecap:butt;stroke-linejoin:miter;stroke:rgb(0%,0%,0%);stroke-opacity:1;stroke-miterlimit:10;" d="M 142.203125 174.246094 L 154.765625 192.730469 "/>
<path style="fill:none;stroke-width:1.2;stroke-linecap:butt;stroke-linejoin:miter;stroke:rgb(0%,0%,0%);stroke-opacity:1;stroke-miterlimit:10;" d="M 150.898438 198.734375 L 178.753906 196.691406 "/>
<path style="fill:none;stroke-width:1.2;stroke-linecap:butt;stroke-linejoin:miter;stroke:rgb(0%,0%,0%);stroke-opacity:1;stroke-miterlimit:10;" d="M 178.753906 196.691406 L 184.835938 184.117188 "/>
<path style="fill:none;stroke-width:1.2;stroke-linecap:butt;stroke-linejoin:miter;stroke:rgb(0%,0%,100%);stroke-opacity:1;stroke-miterlimit:10;" d="M 184.835938 184.117188 L 190.914062 171.542969 "/>
<path style="fill:none;stroke-width:1.2;stroke-linecap:butt;stroke-linejoin:miter;stroke:rgb(0%,0%,100%);stroke-opacity:1;stroke-miterlimit:10;" d="M 198.914062 216.027344 L 188.835938 206.359375 "/>
<path style="fill:none;stroke-width:1.2;stroke-linecap:butt;stroke-linejoin:miter;stroke:rgb(0%,0%,0%);stroke-opacity:1;stroke-miterlimit:10;" d="M 188.835938 206.359375 L 178.753906 196.691406 "/>
<path style="fill:none;stroke-width:1.2;stroke-linecap:butt;stroke-linejoin:miter;stroke:rgb(0%,0%,100%);stroke-opacity:1;stroke-miterlimit:10;" d="M 201.449219 209.347656 L 193.386719 201.613281 "/>
<path style="fill:none;stroke-width:1.2;stroke-linecap:butt;stroke-linejoin:miter;stroke:rgb(0%,0%,0%);stroke-opacity:1;stroke-miterlimit:10;" d="M 193.386719 201.613281 L 185.320312 193.878906 "/>
<path style="fill:none;stroke-width:1.2;stroke-linecap:butt;stroke-linejoin:miter;stroke:rgb(0%,0%,100%);stroke-opacity:1;stroke-miterlimit:10;" d="M 190.914062 171.542969 L 183.066406 159.992188 "/>
<path style="fill:none;stroke-width:1.2;stroke-linecap:butt;stroke-linejoin:miter;stroke:rgb(0%,0%,0%);stroke-opacity:1;stroke-miterlimit:10;" d="M 183.066406 159.992188 L 175.214844 148.4375 "/>
<path style="fill:none;stroke-width:1.2;stroke-linecap:butt;stroke-linejoin:miter;stroke:rgb(0%,0%,100%);stroke-opacity:1;stroke-miterlimit:10;" d="M 190.914062 171.542969 L 204.753906 173.4375 "/>
<path style="fill:none;stroke-width:1.2;stroke-linecap:butt;stroke-linejoin:miter;stroke:rgb(0%,0%,0%);stroke-opacity:1;stroke-miterlimit:10;" d="M 204.753906 173.4375 L 218.589844 175.335938 "/>
<path style=" stroke:none;fill-rule:nonzero;fill:rgb(100%,100%,100%);fill-opacity:1;" d="M 186.914062 165.042969 L 194.914062 165.042969 L 194.914062 178.042969 L 186.914062 178.042969 Z M 186.914062 165.042969 "/>
<g style="fill:rgb(0%,0%,100%);fill-opacity:1;">
  <use xlink:href="#glyph0-2" x="186.914062" y="174.944336"/>
</g>
<path style="fill:none;stroke-width:1.2;stroke-linecap:butt;stroke-linejoin:miter;stroke:rgb(0%,0%,0%);stroke-opacity:1;stroke-miterlimit:10;" d="M 218.589844 175.335938 L 221.0625 189.082031 "/>
<path style="fill:none;stroke-width:1.2;stroke-linecap:butt;stroke-linejoin:miter;stroke:rgb(0%,0%,100%);stroke-opacity:1;stroke-miterlimit:10;" d="M 221.0625 189.082031 L 223.535156 202.828125 "/>
<path style="fill:none;stroke-width:1.2;stroke-linecap:butt;stroke-linejoin:miter;stroke:rgb(0%,0%,0%);stroke-opacity:1;stroke-miterlimit:10;" d="M 212.617188 179.25 L 214.59375 190.246094 "/>
<path style="fill:none;stroke-width:1.2;stroke-linecap:butt;stroke-linejoin:miter;stroke:rgb(0%,0%,100%);stroke-opacity:1;stroke-miterlimit:10;" d="M 214.59375 190.246094 L 216.570312 201.242188 "/>
<path style="fill:none;stroke-width:1.2;stroke-linecap:butt;stroke-linejoin:miter;stroke:rgb(0%,0%,0%);stroke-opacity:1;stroke-miterlimit:10;" d="M 218.589844 175.335938 L 237.925781 155.175781 "/>
<path style="fill:none;stroke-width:1.2;stroke-linecap:butt;stroke-linejoin:miter;stroke:rgb(0%,0%,100%);stroke-opacity:1;stroke-miterlimit:10;" d="M 223.535156 202.828125 L 198.914062 216.027344 "/>
<path style=" stroke:none;fill-rule:nonzero;fill:rgb(100%,100%,100%);fill-opacity:1;" d="M 219.535156 196.328125 L 227.535156 196.328125 L 227.535156 209.328125 L 219.535156 209.328125 Z M 219.535156 196.328125 "/>
<g style="fill:rgb(0%,0%,100%);fill-opacity:1;">
  <use xlink:href="#glyph0-2" x="219.535156" y="206.229492"/>
</g>
<path style=" stroke:none;fill-rule:nonzero;fill:rgb(100%,100%,100%);fill-opacity:1;" d="M 194.914062 209.527344 L 202.914062 209.527344 L 202.914062 222.527344 L 194.914062 222.527344 Z M 194.914062 209.527344 "/>
<g style="fill:rgb(0%,0%,100%);fill-opacity:1;">
  <use xlink:href="#glyph0-2" x="194.914062" y="219.428711"/>
</g>
<path style="fill:none;stroke-width:1.2;stroke-linecap:butt;stroke-linejoin:miter;stroke:rgb(0%,0%,0%);stroke-opacity:1;stroke-miterlimit:10;" d="M 237.925781 155.175781 L 244.589844 128.050781 "/>
<path style="fill:none;stroke-width:1.2;stroke-linecap:butt;stroke-linejoin:miter;stroke:rgb(0%,0%,0%);stroke-opacity:1;stroke-miterlimit:10;" d="M 264.75 147.382812 L 237.925781 155.175781 "/>
<path style="fill:none;stroke-width:1.2;stroke-linecap:butt;stroke-linejoin:miter;stroke:rgb(0%,0%,0%);stroke-opacity:1;stroke-miterlimit:10;" d="M 244.589844 128.050781 L 264.75 147.382812 "/>
</g>
</svg>

<svg xmlns="http://www.w3.org/2000/svg" xmlns:xlink="http://www.w3.org/1999/xlink" width="300pt" height="300pt" viewBox="0 0 300 300"><defs><symbol overflow="visible"><path d="M.547 1.938V-7.75h5.5v9.688zm.625-.61h4.266v-8.47H1.171zm0 0"/></symbol><symbol overflow="visible" id="a"><path d="M1.078-8.016h4.61v.907H2.171v2.36h3.172v.922H2.172V0H1.078zm0 0"/></symbol><symbol overflow="visible" id="b"><path d="M1.078-8.016h1.47l3.546 6.704v-6.704h1.062V0H5.688L2.124-6.703V0H1.078zm0 0"/></symbol><symbol overflow="visible" id="c"><path d="M4.328-7.28c-.78 0-1.406.296-1.875.89-.46.585-.687 1.382-.687 2.39 0 1.012.226 1.813.687 2.406.47.586 1.094.875 1.875.875.79 0 1.414-.288 1.875-.874.457-.593.688-1.394.688-2.406 0-1.008-.23-1.805-.687-2.39-.46-.594-1.086-.89-1.875-.89zm0-.892c1.125 0 2.024.383 2.703 1.14C7.708-6.28 8.048-5.27 8.048-4c0 1.262-.34 2.273-1.016 3.03C6.353-.22 5.454.157 4.33.157S2.3-.22 1.625-.97c-.668-.75-1-1.757-1-3.03 0-1.27.332-2.28 1-3.03.676-.76 1.578-1.142 2.703-1.142zm0 0"/></symbol></defs><g><path fill="#fff" d="M0 0h300v300H0z"/><path d="M35.25 214.78l8.563-11.034" stroke-width="1.2" stroke="#3cc" stroke-miterlimit="10" fill="none"/><path d="M43.813 203.746l8.558-11.035" stroke-width="1.2" stroke="#000" stroke-miterlimit="10" fill="none"/><path d="M28.25 208.28h7v13h-7zm0 0" fill="#fff"/><use xlink:href="#a" x="28.25" y="218.183" fill="#3cc"/><path d="M52.37 192.71L41.82 166.85M57.402 187.64l-8.44-20.69M80.047 196.504L52.37 192.71M41.82 166.848l17.12-22.075M58.94 144.773l27.677 3.797M60.816 151.668l22.14 3.03M86.617 148.57l10.55 25.864M86.617 148.57l17.12-22.074M97.168 174.434l-17.12 22.07M90.266 172.61l-13.7 17.656M103.738 126.496l-3.894-13.41" stroke-width="1.2" stroke="#000" stroke-miterlimit="10" fill="none"/><path d="M99.844 113.086L95.95 99.672" stroke-width="1.2" stroke="#00f" stroke-miterlimit="10" fill="none"/><path d="M131.66 127.38l-27.922-.884M129.074 120.72l-22.336-.704" stroke-width="1.2" stroke="#000" stroke-miterlimit="10" fill="none"/><path d="M95.95 99.672l11.55-7.848" stroke-width="1.2" stroke="#00f" stroke-miterlimit="10" fill="none"/><path d="M107.5 91.824l11.55-7.85" stroke-width="1.2" stroke="#000" stroke-miterlimit="10" fill="none"/><path d="M101.953 103.54l9.242-6.278" stroke-width="1.2" stroke="#00f" stroke-miterlimit="10" fill="none"/><path d="M111.195 97.262l9.243-6.282" stroke-width="1.2" stroke="#000" stroke-miterlimit="10" fill="none"/><path d="M91.95 93.172h8v13h-8zm0 0" fill="#fff"/><use xlink:href="#b" x="91.949" y="103.073" fill="#00f"/><path d="M119.05 83.973l11.036 8.562" stroke-width="1.2" stroke="#000" stroke-miterlimit="10" fill="none"/><path d="M130.086 92.535l11.035 8.563M141.12 101.098l-4.73 13.14" stroke-width="1.2" stroke="#f00" stroke-miterlimit="10" fill="none"/><path d="M136.39 114.238l-4.73 13.14" stroke-width="1.2" stroke="#000" stroke-miterlimit="10" fill="none"/><path d="M137.12 94.598h9v13h-9zm0 0" fill="#fff"/><use xlink:href="#c" x="137.121" y="104.499" fill="#f00"/><path d="M131.66 127.38l15.7 23.1M147.36 150.48l-12.16 25.15M147.36 150.48l27.855-2.042M150.625 156.832l22.285-1.633M135.2 175.63l15.698 23.104M142.203 174.246l12.563 18.484M150.898 198.734l27.856-2.043M178.754 196.69l6.082-12.573" stroke-width="1.2" stroke="#000" stroke-miterlimit="10" fill="none"/><path d="M184.836 184.117l6.078-12.574M198.914 216.027l-10.078-9.668" stroke-width="1.2" stroke="#00f" stroke-miterlimit="10" fill="none"/><path d="M188.836 206.36l-10.082-9.67" stroke-width="1.2" stroke="#000" stroke-miterlimit="10" fill="none"/><path d="M201.45 209.348l-8.063-7.735" stroke-width="1.2" stroke="#00f" stroke-miterlimit="10" fill="none"/><path d="M193.387 201.613l-8.067-7.734" stroke-width="1.2" stroke="#000" stroke-miterlimit="10" fill="none"/><path d="M190.914 171.543l-7.848-11.55" stroke-width="1.2" stroke="#00f" stroke-miterlimit="10" fill="none"/><path d="M183.066 159.992l-7.85-11.554" stroke-width="1.2" stroke="#000" stroke-miterlimit="10" fill="none"/><path d="M190.914 171.543l13.84 1.894" stroke-width="1.2" stroke="#00f" stroke-miterlimit="10" fill="none"/><path d="M204.754 173.438l13.836 1.898" stroke-width="1.2" stroke="#000" stroke-miterlimit="10" fill="none"/><path d="M186.914 165.043h8v13h-8zm0 0" fill="#fff"/><use xlink:href="#b" x="186.914" y="174.944" fill="#00f"/><path d="M218.59 175.336l2.472 13.746" stroke-width="1.2" stroke="#000" stroke-miterlimit="10" fill="none"/><path d="M221.063 189.082l2.472 13.746" stroke-width="1.2" stroke="#00f" stroke-miterlimit="10" fill="none"/><path d="M212.617 179.25l1.977 10.996" stroke-width="1.2" stroke="#000" stroke-miterlimit="10" fill="none"/><path d="M214.594 190.246l1.976 10.996" stroke-width="1.2" stroke="#00f" stroke-miterlimit="10" fill="none"/><path d="M218.59 175.336l19.336-20.16" stroke-width="1.2" stroke="#000" stroke-miterlimit="10" fill="none"/><path d="M223.535 202.828l-24.62 13.2" stroke-width="1.2" stroke="#00f" stroke-miterlimit="10" fill="none"/><path d="M219.535 196.328h8v13h-8zm0 0" fill="#fff"/><use xlink:href="#b" x="219.535" y="206.229" fill="#00f"/><path d="M194.914 209.527h8v13h-8zm0 0" fill="#fff"/><use xlink:href="#b" x="194.914" y="219.429" fill="#00f"/><path d="M237.926 155.176l6.664-27.125M264.75 147.383l-26.824 7.793M244.59 128.05l20.16 19.333" stroke-width="1.2" stroke="#000" stroke-miterlimit="10" fill="none"/></g></svg>
